X: 24
T:  Flor de Maio ()
C:  Stima Legio
S:  jj
D:  "de um tempo ausente", 1989
M: 2/4
K: C
Q: 1/4=80
L: 1/8
EE EG/2F/ | EE EG/2F/ | EE D/2C/B,/C/ | ED D2 ||
EE EG/2F/ | EE EG/2F/ | ED/2C/ B,/C/D/E/ | CC C2 ||
CC CB,/2C/ | ED D2 | DD DE/2F/ | E2 E2 ||
CC CB,/2C/ | ED D2 | G/2F/E/D/ C/B,/C/D/ | EC C2 :|
W:
